public/icons/wrecking_ball_icon.svg

<svg width="330" height="330" viewBox="0 0 330 330" fill="none" xmlns="http://www.w3.org/2000/svg">
<path d="M248.566 38.0184C249.034 38.0039 249.508 37.988 249.975 38.0133C251.601 38.1008 252.238 38.6759 253.241 39.8111C254.863 46.4589 241.101 58.893 239.464 66.3927C239.127 67.9361 239.194 69.2057 240.009 70.5584C242.442 69.8654 243.4 65.7301 246.172 64.5537C247.677 64.7062 247.935 64.8066 249.149 65.7084C251.083 69.2295 248.488 70.8546 247.814 74.185C247.633 75.0774 247.732 74.9242 248.186 75.6193C254.436 71.7376 263.189 51.9584 266.977 50.9424C268.316 50.5833 268.927 50.9526 270.073 51.5386C270.839 52.871 271.27 53.7237 270.813 55.3293C269.515 59.8931 257.565 78.29 253.215 80.8602C249.304 83.1703 246.25 82.4109 242.137 81.3501L238.989 86.0064C241.189 89.2725 243.114 92.3485 243.033 96.4188C242.918 102.325 230.257 122.01 225.613 126.149C222.564 128.866 218.557 127.783 214.869 127.578C212.907 127.469 212.335 127.845 210.959 129.064C210.506 132.34 214.677 137.9 215.457 141.631C217.52 151.502 214.768 159.78 209.469 168.004C215.446 181.218 218.334 195.621 217.915 210.118C217.051 233.535 207.802 256.468 190.414 272.463C173.536 287.99 153.711 293.816 131.158 292.883C124.91 292.259 118.764 290.86 112.86 288.722C92.801 281.194 76.5571 265.998 67.7092 246.481C57.498 224.542 56.0942 197.996 64.4084 175.209C71.8937 154.694 86.7975 137.211 106.764 128.032C126.925 118.763 147.219 119.441 167.72 127.056C169.134 125.699 170.656 124.459 172.271 123.349C180.099 118.072 190.892 117.325 199.513 121.04C201.436 121.869 203.436 123.815 205.409 124.182L206.198 123.227C206.279 120.67 204.26 118.742 203.797 116.273C202.236 107.948 211.473 95.7476 215.991 89.0709C223.614 77.8066 224.704 83.6884 232.888 81.4997C234.256 81.1333 235.441 78.8999 236.197 77.7676C234.641 75.5789 233.224 73.3092 232.7 70.6393C230.863 61.2739 243.401 45.7283 248.566 38.0184Z" fill="black"/>
<path d="M136.97 128.381C152.955 127.928 169.248 134.042 181.619 144.014C198.132 157.324 208.118 177.1 210.301 198.074C212.545 219.63 206.75 242.207 192.983 259.15C179.878 275.278 162.503 283.755 142.031 285.884C123.295 286.429 105.741 280.118 91.7945 267.505C76.2118 253.412 67.3038 232.385 66.2661 211.56C65.1835 189.834 71.8865 168.046 86.6482 151.814C100.003 137.129 117.235 129.365 136.97 128.381Z" fill="#FED200"/>
<path d="M190.379 228.828C191.998 228.877 192.954 228.926 194.336 229.809C194.687 230.404 195.221 231.05 195.288 231.74C195.93 238.437 189.194 247.523 185.025 252.595C172.936 267.304 157.47 273.836 138.74 275.711C137.911 275.726 136.979 275.794 136.164 275.645C134.856 275.407 133.975 274.337 133.496 273.15C132.983 271.879 133.355 271.214 133.903 270.116C137.918 267.024 144.232 268.008 149.009 266.903C163.179 263.626 176.172 254.832 183.633 242.21C186.094 238.045 187.502 233.311 190.11 229.241L190.379 228.828Z" fill="black"/>
<path d="M186.606 126.167C190.174 126.011 193.778 126.563 197.035 128.051C201.924 130.285 205.499 134.421 207.361 139.433C210.126 146.877 208.782 153.911 205.604 160.929L202.263 155.777C194.785 145.293 185.833 136.919 174.632 130.564C178.698 128.105 181.877 126.751 186.606 126.167Z" fill="#FEFEFE"/>
<path d="M225.655 88.2617L227.757 88.8116C228.188 90.6701 225.783 92.4071 225.814 94.7281C226.338 96.2585 226.806 97.0945 228.028 98.164C231.943 98.7435 232.317 94.1674 235.454 93.5062C236.12 94.9506 236.089 95.5114 235.74 97.0837C234.661 101.939 223.743 119.051 219.456 121.679L217.965 120.962C217.704 118.786 220.384 117.164 220.446 114.905C220.49 113.316 219.707 111.842 218.709 110.673C215.575 110.268 213.95 114.175 211.503 115.801L210.695 115.259C210.544 114.699 210.397 114.187 210.413 113.6C210.546 108.726 222.075 91.5892 225.655 88.2617Z" fill="#FEFEFE"/>
</svg>

<svg xmlns="http://www.w3.org/2000/svg" width="330" height="330" fill="none" viewBox="0 0 330 330"><path fill="#000" d="M248.566 38.018c.468-.014.942-.03 1.409-.005 1.626.088 2.263.663 3.266 1.798 1.622 6.648-12.14 19.082-13.777 26.582-.337 1.543-.27 2.813.545 4.165 2.433-.693 3.391-4.828 6.163-6.004 1.505.152 1.763.253 2.977 1.154 1.934 3.522-.661 5.147-1.335 8.477-.181.892-.082.74.372 1.434 6.25-3.881 15.003-23.66 18.791-24.677 1.339-.359 1.95.01 3.096.597.766 1.332 1.197 2.185.74 3.79-1.298 4.564-13.248 22.961-17.598 25.531-3.911 2.31-6.965 1.55-11.078.49l-3.148 4.656c2.2 3.266 4.125 6.343 4.044 10.413-.115 5.906-12.776 25.591-17.42 29.73-3.049 2.717-7.056 1.634-10.744 1.429-1.962-.109-2.534.267-3.91 1.486-.453 3.276 3.718 8.836 4.498 12.567 2.063 9.871-.689 18.149-5.988 26.373a95.5 95.5 0 0 1 8.446 42.114c-.864 23.417-10.113 46.35-27.501 62.345-16.878 15.527-36.703 21.353-59.256 20.42a76 76 0 0 1-18.298-4.161 80.7 80.7 0 0 1-45.15-42.241c-10.212-21.939-11.616-48.485-3.302-71.272 7.486-20.515 22.39-37.998 42.356-47.177 20.161-9.269 40.455-8.591 60.956-.976a36 36 0 0 1 4.551-3.707c7.828-5.277 18.621-6.024 27.242-2.309 1.923.829 3.923 2.775 5.896 3.142l.789-.955c.081-2.557-1.938-4.485-2.401-6.954-1.561-8.325 7.676-20.525 12.194-27.202 7.623-11.264 8.713-5.383 16.897-7.571 1.368-.367 2.553-2.6 3.309-3.732-1.556-2.19-2.973-4.459-3.497-7.129-1.837-9.365 10.701-24.91 15.866-32.62"/><path fill="#fed200" d="M136.97 128.381c15.985-.453 32.278 5.661 44.649 15.633 16.513 13.31 26.499 33.086 28.682 54.06 2.244 21.556-3.551 44.133-17.318 61.076-13.105 16.128-30.48 24.605-50.952 26.734-18.736.545-36.29-5.766-50.237-18.379-15.582-14.093-24.49-35.12-25.528-55.945-1.083-21.726 5.62-43.514 20.382-59.746 13.355-14.685 30.587-22.449 50.322-23.433"/><path fill="#000" d="M190.379 228.828c1.619.049 2.575.098 3.957.981.351.595.885 1.241.952 1.931.642 6.697-6.094 15.783-10.263 20.855-12.089 14.709-27.555 21.241-46.285 23.116-.829.015-1.761.083-2.576-.066-1.308-.238-2.189-1.308-2.668-2.495-.513-1.271-.141-1.936.407-3.034 4.015-3.092 10.329-2.108 15.106-3.213 14.17-3.277 27.163-12.071 34.624-24.693 2.461-4.165 3.869-8.899 6.477-12.969z"/><path fill="#fefefe" d="M186.606 126.167c3.568-.156 7.172.396 10.429 1.884 4.889 2.234 8.464 6.37 10.326 11.382 2.765 7.444 1.421 14.478-1.757 21.496l-3.341-5.152c-7.478-10.484-16.43-18.858-27.631-25.213 4.066-2.459 7.245-3.813 11.974-4.397m39.049-37.905 2.102.55c.431 1.858-1.974 3.595-1.943 5.916.524 1.53.992 2.367 2.214 3.436 3.915.58 4.289-3.997 7.426-4.658.666 1.445.635 2.005.286 3.578-1.079 4.855-11.997 21.967-16.284 24.595l-1.491-.717c-.261-2.176 2.419-3.798 2.481-6.057.044-1.589-.739-3.063-1.737-4.232-3.134-.405-4.759 3.502-7.206 5.128l-.808-.542c-.151-.56-.298-1.072-.282-1.659.133-4.874 11.662-22.01 15.242-25.338"/></svg>
